logos/tecmie/tecmie.svg

<svg width="3856" height="960" fill="none" xmlns="http://www.w3.org/2000/svg"><path d="M467.003 119a361 361 0 1 1-.417 0" fill="#011627"/><path d="M467.003 119a361 361 0 1 1-.417 0" stroke="#011627" stroke-width="210.077" stroke-linecap="round" stroke-linejoin="bevel"/><path d="m474.839 682.526 222.029-200.019-137.51-134.85-222.03 200.019c-36.745 33.102-35.747 90.124 2.228 127.366 37.97 37.234 98.537 40.587 135.283 7.484Z" fill="#FF9F1C"/><path d="m340.437 374.082 228.381 223.837 132.436-119.29-228.382-223.837c-37.793-37.041-98.081-40.37-134.655-7.428-36.57 32.94-35.574 89.677 2.22 126.718Z" fill="#E71D36"/><path d="M1294.2 775.2c-40 0-70.93-9.6-92.8-28.8-21.33-19.733-32-53.067-32-100V443.2h-51.2v-104h51.2V229.6H1291v109.6h100.8v104H1291v183.2c0 27.733 13.07 41.6 39.2 41.6 21.87 0 41.87-5.067 60-15.2v97.6c-27.73 16.533-59.73 24.8-96 24.8Zm378.71 2.4c-65.06 0-118.66-20.533-160.8-61.6-42.13-41.6-63.2-94.933-63.2-160v-1.6c0-62.4 20-115.2 60-158.4s90.67-64.8 152-64.8c67.74 0 119.47 22.4 155.2 67.2 35.74 44.8 53.6 100 53.6 165.6 0 5.333-.53 16-1.6 32h-298.4c5.87 27.2 17.87 48 36 62.4 18.14 14.4 41.07 21.6 68.8 21.6 36.8 0 71.47-14.667 104-44l69.6 61.6c-43.2 53.333-101.6 80-175.2 80ZM1568.11 520h183.2c-3.73-27.733-13.6-49.867-29.6-66.4-15.46-16.533-35.73-24.8-60.8-24.8-25.06 0-45.6 8.267-61.6 24.8-16 16-26.4 38.133-31.2 66.4Zm594.63 257.6c-63.47 0-116.54-21.6-159.2-64.8-42.67-43.2-64-95.467-64-156.8v-1.6c0-61.867 21.33-114.4 64-157.6 42.66-43.733 96.26-65.6 160.8-65.6 70.4 0 127.46 24 171.2 72l-74.4 80c-15.47-16-30.67-27.733-45.6-35.2-14.4-8-31.74-12-52-12-29.87 0-54.67 11.467-74.4 34.4-19.74 22.4-29.6 49.867-29.6 82.4v1.6c0 34.133 9.86 62.4 29.6 84.8 20.26 22.4 46.66 33.6 79.2 33.6 33.6 0 66.4-15.2 98.4-45.6l71.2 72c-23.47 25.6-48.54 45.067-75.2 58.4-26.67 13.333-60 20-100 20Zm254.63-9.6V339.2h121.6V400c35.73-45.867 77.87-68.8 126.4-68.8 57.6 0 97.87 22.667 120.8 68 37.87-45.333 84.8-68 140.8-68 45.87 0 81.33 13.6 106.4 40.8 25.6 26.667 38.4 65.6 38.4 116.8V768h-121.6V528.8c0-58.133-23.73-87.2-71.2-87.2-22.93 0-41.07 7.467-54.4 22.4-12.8 14.933-19.2 36.533-19.2 64.8V768h-121.6V528.8c0-58.133-23.73-87.2-71.2-87.2-22.93 0-41.07 7.467-54.4 22.4-12.8 14.933-19.2 36.533-19.2 64.8V768h-121.6Zm762.56-476V184h128v108h-128Zm3.2 476V339.2h121.6V768h-121.6Zm439 9.6c-65.07 0-118.67-20.533-160.8-61.6-42.13-41.6-63.2-94.933-63.2-160v-1.6c0-62.4 20-115.2 60-158.4s90.67-64.8 152-64.8c67.73 0 119.47 22.4 155.2 67.2 35.73 44.8 53.6 100 53.6 165.6 0 5.333-.53 16-1.6 32h-298.4c5.87 27.2 17.87 48 36 62.4 18.13 14.4 41.07 21.6 68.8 21.6 36.8 0 71.47-14.667 104-44l69.6 61.6c-43.2 53.333-101.6 80-175.2 80ZM3517.33 520h183.2c-3.73-27.733-13.6-49.867-29.6-66.4-15.47-16.533-35.73-24.8-60.8-24.8s-45.6 8.267-61.6 24.8c-16 16-26.4 38.133-31.2 66.4Z" fill="#011627"/></svg>

<svg width="3856" height="960" viewBox="0 0 3856 960" fill="none" xmlns="http://www.w3.org/2000/svg">
<path d="M467.003 119C562.728 119.001 654.534 157.021 722.231 224.7C789.928 292.378 827.973 384.173 828 479.899C828.027 575.624 790.033 667.44 722.374 735.157C654.715 802.874 562.931 840.945 467.206 841C371.48 841.054 279.653 803.087 211.917 735.448C144.181 667.808 106.082 576.035 106 480.31C105.918 384.585 143.859 292.746 211.479 224.99C279.099 157.235 370.861 119.11 466.586 119" fill="#011627"/>
<path d="M467.003 119C562.728 119.001 654.534 157.021 722.231 224.7C789.928 292.378 827.973 384.173 828 479.899C828.027 575.624 790.033 667.44 722.374 735.157C654.715 802.874 562.931 840.945 467.206 841C371.48 841.054 279.653 803.087 211.917 735.448C144.181 667.808 106.082 576.035 106 480.31C105.918 384.585 143.859 292.746 211.479 224.99C279.099 157.235 370.861 119.11 466.586 119" stroke="#011627" stroke-width="210.077" stroke-linecap="round" stroke-linejoin="bevel"/>
<path d="M474.839 682.526L696.868 482.507L559.358 347.657L337.328 547.676C300.583 580.778 301.581 637.8 339.556 675.042C377.526 712.276 438.093 715.629 474.839 682.526Z" fill="#FF9F1C"/>
<path d="M340.437 374.082L568.818 597.919L701.254 478.629L472.872 254.792C435.079 217.751 374.791 214.422 338.217 247.364C301.647 280.304 302.643 337.041 340.437 374.082Z" fill="#E71D36"/>
<path d="M1294.2 775.2C1254.2 775.2 1223.27 765.6 1201.4 746.4C1180.07 726.667 1169.4 693.333 1169.4 646.4V443.2H1118.2V339.2H1169.4V229.6H1291V339.2H1391.8V443.2H1291V626.4C1291 654.133 1304.07 668 1330.2 668C1352.07 668 1372.07 662.933 1390.2 652.8V750.4C1362.47 766.933 1330.47 775.2 1294.2 775.2ZM1672.91 777.6C1607.85 777.6 1554.25 757.067 1512.11 716C1469.98 674.4 1448.91 621.067 1448.91 556V554.4C1448.91 492 1468.91 439.2 1508.91 396C1548.91 352.8 1599.58 331.2 1660.91 331.2C1728.65 331.2 1780.38 353.6 1816.11 398.4C1851.85 443.2 1869.71 498.4 1869.71 564C1869.71 569.333 1869.18 580 1868.11 596H1569.71C1575.58 623.2 1587.58 644 1605.71 658.4C1623.85 672.8 1646.78 680 1674.51 680C1711.31 680 1745.98 665.333 1778.51 636L1848.11 697.6C1804.91 750.933 1746.51 777.6 1672.91 777.6ZM1568.11 520H1751.31C1747.58 492.267 1737.71 470.133 1721.71 453.6C1706.25 437.067 1685.98 428.8 1660.91 428.8C1635.85 428.8 1615.31 437.067 1599.31 453.6C1583.31 469.6 1572.91 491.733 1568.11 520ZM2162.74 777.6C2099.27 777.6 2046.2 756 2003.54 712.8C1960.87 669.6 1939.54 617.333 1939.54 556V554.4C1939.54 492.533 1960.87 440 2003.54 396.8C2046.2 353.067 2099.8 331.2 2164.34 331.2C2234.74 331.2 2291.8 355.2 2335.54 403.2L2261.14 483.2C2245.67 467.2 2230.47 455.467 2215.54 448C2201.14 440 2183.8 436 2163.54 436C2133.67 436 2108.87 447.467 2089.14 470.4C2069.4 492.8 2059.54 520.267 2059.54 552.8V554.4C2059.54 588.533 2069.4 616.8 2089.14 639.2C2109.4 661.6 2135.8 672.8 2168.34 672.8C2201.94 672.8 2234.74 657.6 2266.74 627.2L2337.94 699.2C2314.47 724.8 2289.4 744.267 2262.74 757.6C2236.07 770.933 2202.74 777.6 2162.74 777.6ZM2417.37 768V339.2H2538.97V400C2574.7 354.133 2616.84 331.2 2665.37 331.2C2722.97 331.2 2763.24 353.867 2786.17 399.2C2824.04 353.867 2870.97 331.2 2926.97 331.2C2972.84 331.2 3008.3 344.8 3033.37 372C3058.97 398.667 3071.77 437.6 3071.77 488.8V768H2950.17V528.8C2950.17 470.667 2926.44 441.6 2878.97 441.6C2856.04 441.6 2837.9 449.067 2824.57 464C2811.77 478.933 2805.37 500.533 2805.37 528.8V768H2683.77V528.8C2683.77 470.667 2660.04 441.6 2612.57 441.6C2589.64 441.6 2571.5 449.067 2558.17 464C2545.37 478.933 2538.97 500.533 2538.97 528.8V768H2417.37ZM3179.93 292V184H3307.93V292H3179.93ZM3183.13 768V339.2H3304.73V768H3183.13ZM3622.13 777.6C3557.06 777.6 3503.46 757.067 3461.33 716C3419.2 674.4 3398.13 621.067 3398.13 556V554.4C3398.13 492 3418.13 439.2 3458.13 396C3498.13 352.8 3548.8 331.2 3610.13 331.2C3677.86 331.2 3729.6 353.6 3765.33 398.4C3801.06 443.2 3818.93 498.4 3818.93 564C3818.93 569.333 3818.4 580 3817.33 596H3518.93C3524.8 623.2 3536.8 644 3554.93 658.4C3573.06 672.8 3596 680 3623.73 680C3660.53 680 3695.2 665.333 3727.73 636L3797.33 697.6C3754.13 750.933 3695.73 777.6 3622.13 777.6ZM3517.33 520H3700.53C3696.8 492.267 3686.93 470.133 3670.93 453.6C3655.46 437.067 3635.2 428.8 3610.13 428.8C3585.06 428.8 3564.53 437.067 3548.53 453.6C3532.53 469.6 3522.13 491.733 3517.33 520Z" fill="#011627"/>
</svg>
